!!!OTL: Tanzlied
!!!ARE: Europa, Mitteleuropa, Deutschland
!!!SCT: A0308
!!!YEM: Copyright 1995, estate of Helmut Schaffrath.
**kern
*ICvox
*Ivox
*M4/2
*k[]
*C:
{2e
2.g
4a
=1
2.b
4b
2.cc
4b
=2
2.a}
{4a
2.g
4f
=3
1e
1r
=4
2r}
{2e
2.g
4a
=5
2.b
4b
2.cc
4b
=6
2.a}
{4a
2.g
4f
=7
1e
2r}
{2e
=8
2.e
4e
2.e
4e
=9
1a
2.g}
{4f
=10
1d
1c
=11
2r}
{2c
2.g
4a
=12
2.b}
{4b
2.cc
4b
=13
2.a}
{4cc
2.b
4a
=14
2.g
4f
2.e
4g
=15
1f
1e
=16
2r}
==
!! Souterliedekens 1540 ad Ps 127. Ev. phrygisch aufzufassen.
!!!ONB: ESAC (Essen Associative Code) Database: ALTDEU
!!!AMT: simple quadruple
!!!AIN: vox
!!!EED: Helmut Schaffrath
!!!EEV: 1.0
*-
